src/actions/22/list-remove-user.svg

<svg xmlns="http://www.w3.org/2000/svg" viewBox="0 0 22 22">
  <defs id="defs3051">
    <style type="text/css" id="current-color-scheme">
      .ColorScheme-Text {
        color:#2e3440;
      }
      </style>
  </defs>
 <path 
     style="fill:currentColor;fill-opacity:1;stroke:none" 
     d="M 11 3 C 9.338 3 8 4.338 8 6 C 8 7.662 9.338 9 11 9 C 12.662 9 14 7.662 14 6 C 14 4.338 12.662 3 11 3 z M 11 11 C 8.23 11 6 11.89198 6 13 L 6 18 L 6 19 L 7.2011719 19 L 13 19 L 13 18 L 7 18 L 7 13.427734 C 7 12.636304 8.784 12 11 12 C 12.795116 12 14.289377 12.420682 14.798828 13 L 16 13 C 16 11.89198 13.77 11 11 11 z "
     class="ColorScheme-Text"
     />
    <path
       style="fill:#bf616a;fill-opacity:1;stroke:none"
       d="M 14 16 L 14 17 L 19 17 L 19 16 L 14 16 z "
        />
</svg>

<svg viewBox="0 0 22 22" xmlns="http://www.w3.org/2000/svg">
 <defs>
  <style type="text/css">.ColorScheme-Text {
        color:#2e3440;
      }</style>
 </defs>
 <path class="ColorScheme-Text" d="m11 3c-1.662 0-3 1.338-3 3s1.338 3 3 3 3-1.338 3-3-1.338-3-3-3zm0 8c-2.77 0-5 0.89198-5 2v5 1h1.2012 5.7988v-1h-6v-4.5723c0-0.79143 1.784-1.4277 4-1.4277 1.7951 0 3.2894 0.42068 3.7988 1h1.2012c0-1.108-2.23-2-5-2z" fill="currentColor"/>
 <path d="m14 16v1h5v-1h-5z" fill="#bf616a"/>
</svg>
